;Generated with Cura_SteamEngine 15.01
; Default start code
G28 ; Home extruder
G1 Z15 F100
M107 ; Turn off fan
G90 ; Absolute positioning
M82 ; Extruder in absolute mode
M190 S50
; Activate all used extruder
M104 T0 S200
G92 E0 ; Reset extruder position
; Wait for all used extruders to reach temperature
M109 T0 S200
;Layer count: 212
;LAYER:0
M107
G0 F9000 X175.257 Y212.089 Z0.300
;TYPE:SKIRT
G1 F1800 X176.182 Y211.360 E0.05876
G1 X177.160 Y210.707 E0.11743
G1 X178.189 Y210.130 E0.17628
G1 X179.259 Y209.638 E0.23504
G1 X180.362 Y209.230 E0.29371
G1 X181.498 Y208.910 E0.35259
G1 X182.651 Y208.681 E0.41124
G1 X183.823 Y208.541 E0.47013
G1 X184.904 Y208.500 E0.52410
G1 X315.096 Y208.500 E7.01940
G1 X316.176 Y208.541 E7.07332
G1 X317.348 Y208.681 E7.13221
G1 X318.501 Y208.910 E7.19086
G1 X319.637 Y209.230 E7.24974
G1 X320.740 Y209.638 E7.30841
G1 X321.810 Y210.130 E7.36717
G1 X322.839 Y210.707 E7.42602
G1 X323.817 Y211.360 E7.48469
G1 X324.742 Y212.089 E7.54345
G1 X325.609 Y212.890 E7.60234
G1 X326.410 Y213.757 E7.66123
G1 X327.139 Y214.682 E7.71999
G1 X327.792 Y215.660 E7.77865
G1 X328.369 Y216.689 E7.83751
G1 X328.861 Y217.759 E7.89627
G1 X329.269 Y218.862 E7.95494
G1 X329.589 Y219.998 E8.01382
G1 X329.818 Y221.151 E8.07247
G1 X329.957 Y222.320 E8.13120
G1 X330.000 Y223.401 E8.18517
G1 X330.000 Y236.599 E8.84363
G1 X329.957 Y237.679 E8.89755
G1 X329.818 Y238.848 E8.95628
G1 X329.589 Y240.001 E9.01493
G1 X329.269 Y241.137 E9.07381
G1 X328.861 Y242.240 E9.13248
G1 X328.369 Y243.310 E9.19124
G1 X327.792 Y244.339 E9.25010
G1 X327.139 Y245.317 E9.30876
G1 X326.410 Y246.242 E9.36752
G1 X325.609 Y247.109 E9.42641
G1 X324.742 Y247.910 E9.48530
G1 X323.817 Y248.639 E9.54406
G1 X322.839 Y249.292 E9.60273
G1 X321.810 Y249.869 E9.66158
G1 X320.740 Y250.361 E9.72034
G1 X319.637 Y250.769 E9.77901
G1 X318.501 Y251.089 E9.83789
G1 X317.348 Y251.318 E9.89654
G1 X316.179 Y251.457 E9.95527
G1 X315.099 Y251.500 E10.00920
G1 X184.901 Y251.500 E16.50480
G1 X183.820 Y251.457 E16.55878
G1 X182.651 Y251.318 E16.61751
G1 X181.498 Y251.089 E16.67616
G1 X180.362 Y250.769 E16.73504
G1 X179.259 Y250.361 E16.79371
G1 X178.189 Y249.869 E16.85246
G1 X177.160 Y249.292 E16.91132
G1 X176.182 Y248.639 E16.96999
G1 X175.257 Y247.910 E17.02875
G1 X174.390 Y247.109 E17.08764
G1 X173.589 Y246.242 E17.14653
G1 X172.860 Y245.317 E17.20528
G1 X172.207 Y244.339 E17.26395
G1 X171.630 Y243.310 E17.32281
G1 X171.138 Y242.240 E17.38157
G1 X170.730 Y241.137 E17.44024
G1 X170.410 Y240.001 E17.49912
G1 X170.181 Y238.848 E17.55777
G1 X170.041 Y237.676 E17.61665
G1 X170.000 Y236.596 E17.67057
G1 X170.000 Y223.624 E18.31775
G1 X170.039 Y222.342 E18.38174
G1 X170.181 Y221.151 E18.44158
G1 X170.410 Y219.998 E18.50023
G1 X170.730 Y218.862 E18.55911
G1 X171.138 Y217.759 E18.61778
G1 X171.630 Y216.689 E18.67654
G1 X172.207 Y215.660 E18.73539
G1 X172.860 Y214.682 E18.79406
G1 X173.589 Y213.757 E18.85282
G1 X174.390 Y212.890 E18.91171
G1 X175.257 Y212.089 E18.97060
G0 F9000 X175.517 Y212.393
G1 F1800 X176.417 Y211.684 E19.02776
G1 X177.370 Y211.048 E19.08492
G1 X178.371 Y210.487 E19.14217
G1 X179.412 Y210.008 E19.19934
G1 X180.486 Y209.611 E19.25646
G1 X181.591 Y209.299 E19.31375
G1 X182.713 Y209.076 E19.37082
G1 X183.854 Y208.940 E19.42815
G1 X184.912 Y208.900 E19.48097
G1 X315.088 Y208.900 E25.97547
G1 X316.145 Y208.940 E26.02825
G1 X317.286 Y209.076 E26.08557
G1 X318.408 Y209.299 E26.14265
G1 X319.513 Y209.611 E26.19993
G1 X320.587 Y210.008 E26.25706
G1 X321.628 Y210.487 E26.31423
G1 X322.629 Y211.048 E26.37147
G1 X323.582 Y211.684 E26.42863
G1 X324.482 Y212.393 E26.48579
G1 X325.326 Y213.173 E26.54313
G1 X326.106 Y214.017 E26.60047
G1 X326.815 Y214.917 E26.65763
G1 X327.451 Y215.870 E26.71479
G1 X328.012 Y216.871 E26.77204
G1 X328.491 Y217.912 E26.82921
G1 X328.888 Y218.986 E26.88633
G1 X329.200 Y220.091 E26.94361
G1 X329.423 Y221.213 E27.00069
G1 X329.558 Y222.351 E27.05786
G1 X329.600 Y223.409 E27.11068
G1 X329.600 Y236.591 E27.76834
G1 X329.558 Y237.648 E27.82111
G1 X329.423 Y238.786 E27.87829
G1 X329.200 Y239.908 E27.93536
G1 X328.888 Y241.013 E27.99264
G1 X328.491 Y242.087 E28.04977
G1 X328.012 Y243.128 E28.10694
G1 X327.451 Y244.129 E28.16419
G1 X326.815 Y245.082 E28.22135
G1 X326.106 Y245.982 E28.27851
G1 X325.326 Y246.826 E28.33584
G1 X324.482 Y247.606 E28.39318
G1 X323.582 Y248.315 E28.45034
G1 X322.629 Y248.951 E28.50750
G1 X321.628 Y249.512 E28.56475
G1 X320.587 Y249.991 E28.62192
G1 X319.513 Y250.388 E28.67904
G1 X318.408 Y250.700 E28.73633
G1 X317.286 Y250.923 E28.79340
G1 X316.148 Y251.058 E28.85057
G1 X315.091 Y251.100 E28.90335
G1 X184.909 Y251.100 E35.39815
G1 X183.851 Y251.058 E35.45098
G1 X182.713 Y250.923 E35.50815
G1 X181.591 Y250.700 E35.56522
G1 X180.486 Y250.388 E35.62251
G1 X179.412 Y249.991 E35.67963
G1 X178.371 Y249.512 E35.73680
G1 X177.370 Y248.951 E35.79405
G1 X176.417 Y248.315 E35.85121
G1 X175.517 Y247.606 E35.90837
G1 X174.673 Y246.826 E35.96571
G1 X173.893 Y245.982 E36.02304
G1 X173.184 Y245.082 E36.08020
G1 X172.548 Y244.129 E36.13737
G1 X171.987 Y243.128 E36.19461
G1 X171.508 Y242.087 E36.25178
G1 X171.111 Y241.013 E36.30891
G1 X170.799 Y239.908 E36.36619
G1 X170.576 Y238.786 E36.42326
G1 X170.440 Y237.645 E36.48059
G1 X170.400 Y236.588 E36.53336
G1 X170.400 Y223.630 E37.17984
G1 X170.438 Y222.372 E37.24263
G1 X170.576 Y221.213 E37.30086
G1 X170.799 Y220.091 E37.35793
G1 X171.111 Y218.986 E37.41522
G1 X171.508 Y217.912 E37.47234
G1 X171.987 Y216.871 E37.52951
G1 X172.548 Y215.870 E37.58676
G1 X173.184 Y214.917 E37.64392
G1 X173.893 Y214.017 E37.70108
G1 X174.673 Y213.173 E37.75842
G1 X175.517 Y212.393 E37.81575
G0 F9000 X175.776 Y212.698
G1 F1800 X176.653 Y212.008 E37.87143
G1 X177.579 Y211.389 E37.92700
G1 X178.552 Y210.843 E37.98266
G1 X179.565 Y210.378 E38.03827
G1 X180.609 Y209.992 E38.09380
G1 X181.685 Y209.689 E38.14957
G1 X182.776 Y209.472 E38.20507
G1 X183.886 Y209.340 E38.26084
G1 X184.920 Y209.300 E38.31246
G1 X315.080 Y209.300 E44.80617
G1 X316.113 Y209.340 E44.85774
G1 X317.223 Y209.472 E44.91351
G1 X318.314 Y209.689 E44.96901
G1 X319.390 Y209.992 E45.02478
G1 X320.434 Y210.378 E45.08031
G1 X321.447 Y210.843 E45.13592
G1 X322.420 Y211.389 E45.19158
G1 X323.346 Y212.008 E45.24715
G1 X324.223 Y212.698 E45.30283
G1 X325.043 Y213.456 E45.35854
G1 X325.801 Y214.276 E45.41425
G1 X326.491 Y215.153 E45.46992
G1 X327.110 Y216.079 E45.52549
G1 X327.656 Y217.052 E45.58115
G1 X328.121 Y218.065 E45.63676
G1 X328.507 Y219.109 E45.69229
G1 X328.810 Y220.185 E45.74806
G1 X329.027 Y221.276 E45.80356
G1 X329.159 Y222.383 E45.85918
G1 X329.200 Y223.417 E45.91081
G1 X329.200 Y236.583 E46.56766
G1 X329.159 Y237.616 E46.61924
G1 X329.027 Y238.723 E46.67486
G1 X328.810 Y239.814 E46.73035
G1 X328.507 Y240.890 E46.78612
G1 X328.121 Y241.934 E46.84166
G1 X327.656 Y242.947 E46.89726
G1 X327.110 Y243.920 E46.95293
G1 X326.491 Y244.846 E47.00850
G1 X325.801 Y245.723 E47.06417
G1 X325.043 Y246.543 E47.11988
G1 X324.223 Y247.301 E47.17559
G1 X323.346 Y247.991 E47.23127
G1 X322.420 Y248.610 E47.28683
G1 X321.447 Y249.156 E47.34250
G1 X320.434 Y249.621 E47.39811
G1 X319.390 Y250.007 E47.45364
G1 X318.314 Y250.310 E47.50941
G1 X317.223 Y250.527 E47.56491
G1 X316.116 Y250.659 E47.62052
G1 X315.083 Y250.700 E47.67210
G1 X184.917 Y250.700 E54.16611
G1 X183.883 Y250.659 E54.21774
G1 X182.776 Y250.527 E54.27336
G1 X181.685 Y250.310 E54.32885
G1 X180.609 Y250.007 E54.38462
G1 X179.565 Y249.621 E54.44015
G1 X178.552 Y249.156 E54.49576
G1 X177.579 Y248.610 E54.55143
G1 X176.653 Y247.991 E54.60700
G1 X175.776 Y247.301 E54.66267
G1 X174.956 Y246.543 E54.71838
G1 X174.198 Y245.723 E54.77409
G1 X173.508 Y244.846 E54.82976
G1 X172.889 Y243.920 E54.88533
G1 X172.343 Y242.947 E54.94100
G1 X171.878 Y241.934 E54.99661
G1 X171.492 Y240.890 E55.05214
G1 X171.189 Y239.814 E55.10791
G1 X170.972 Y238.723 E55.16340
G1 X170.840 Y237.613 E55.21917
G1 X170.800 Y236.580 E55.27075
G1 X170.800 Y223.636 E55.91653
G1 X170.838 Y222.402 E55.97812
G1 X170.972 Y221.276 E56.03469
G1 X171.189 Y220.185 E56.09019
G1 X171.492 Y219.109 E56.14596
G1 X171.878 Y218.065 E56.20149
G1 X172.343 Y217.052 E56.25710
G1 X172.889 Y216.079 E56.31276
G1 X173.508 Y215.153 E56.36833
G1 X174.198 Y214.276 E56.42401
G1 X174.956 Y213.456 E56.47972
G1 X175.776 Y212.698 E56.53543
G0 F9000 X176.036 Y213.002
G1 F1800 X176.888 Y212.332 E56.58950
G1 X177.788 Y211.731 E56.64349
G1 X178.734 Y211.200 E56.69762
G1 X179.718 Y210.747 E56.75166
G1 X180.733 Y210.372 E56.80565
G1 X181.778 Y210.078 E56.85981
G1 X182.839 Y209.867 E56.91378
G1 X183.917 Y209.739 E56.96793
G1 X184.927 Y209.700 E57.01836
G1 X315.073 Y209.700 E63.51137
G1 X316.082 Y209.739 E63.56175
G1 X317.160 Y209.867 E63.61591
G1 X318.221 Y210.078 E63.66988
G1 X319.266 Y210.372 E63.72404
G1 X320.281 Y210.747 E63.77802
G1 X321.265 Y211.200 E63.83207
G1 X322.211 Y211.731 E63.88619
G1 X323.111 Y212.332 E63.94018
G1 X323.963 Y213.002 E63.99426
G1 X324.760 Y213.739 E64.04841
G1 X325.497 Y214.536 E64.10257
G1 X326.167 Y215.388 E64.15665
G1 X326.768 Y216.288 E64.21064
G1 X327.299 Y217.234 E64.26476
G1 X327.752 Y218.218 E64.31881
G1 X328.127 Y219.233 E64.37279
G1 X328.421 Y220.278 E64.42695
G1 X328.632 Y221.339 E64.48092
G1 X328.760 Y222.415 E64.53498
G1 X328.800 Y223.425 E64.58541
G1 X328.800 Y236.575 E65.24146
G1 X328.760 Y237.584 E65.29184
G1 X328.632 Y238.660 E65.34590
G1 X328.421 Y239.721 E65.39987
G1 X328.127 Y240.766 E65.45403
G1 X327.752 Y241.781 E65.50802
G1 X327.299 Y242.765 E65.56206
G1 X326.768 Y243.711 E65.61618
G1 X326.167 Y244.611 E65.67018
G1 X325.497 Y245.463 E65.72425
G1 X324.760 Y246.260 E65.77841
G1 X323.963 Y246.997 E65.83257
G1 X323.111 Y247.667 E65.88664
G1 X322.211 Y248.268 E65.94063
G1 X321.265 Y248.799 E65.99476
G1 X320.281 Y249.252 E66.04880
G1 X319.266 Y249.627 E66.10278
G1 X318.221 Y249.921 E66.15694
G1 X317.160 Y250.132 E66.21091
G1 X316.084 Y250.260 E66.26497
G1 X315.075 Y250.300 E66.31535
G1 X184.925 Y250.300 E72.80856
G1 X183.915 Y250.260 E72.85899
G1 X182.839 Y250.132 E72.91305
G1 X181.778 Y249.921 E72.96702
G1 X180.733 Y249.627 E73.02118
G1 X179.718 Y249.252 E73.07517
G1 X178.734 Y248.799 E73.12921
G1 X177.788 Y248.268 E73.18333
G1 X176.888 Y247.667 E73.23732
G1 X176.036 Y246.997 E73.29140
G1 X175.239 Y246.260 E73.34556
G1 X174.502 Y245.463 E73.39971
G1 X173.832 Y244.611 E73.45379
G1 X173.231 Y243.711 E73.50778
G1 X172.700 Y242.765 E73.56191
G1 X172.247 Y241.781 E73.61595
G1 X171.872 Y240.766 E73.66993
G1 X171.578 Y239.721 E73.72409
G1 X171.367 Y238.660 E73.77806
G1 X171.239 Y237.582 E73.83222
G1 X171.200 Y236.573 E73.88260
G1 X171.200 Y223.642 E74.52773
G1 X171.237 Y222.432 E74.58812
G1 X171.367 Y221.339 E74.64304
G1 X171.578 Y220.278 E74.69701
G1 X171.872 Y219.233 E74.75117
G1 X172.247 Y218.218 E74.80515
G1 X172.700 Y217.234 E74.85920
G1 X173.231 Y216.288 E74.91332
G1 X173.832 Y215.388 E74.96731
G1 X174.502 Y214.536 E75.02139
G1 X175.239 Y213.739 E75.07554
G1 X176.036 Y213.002 E75.12970
G0 F9000 X176.296 Y213.307
G1 F1800 X177.123 Y212.655 E75.18224
G1 X177.997 Y212.072 E75.23466
G1 X178.916 Y211.557 E75.28721
G1 X179.871 Y211.117 E75.33967
G1 X180.857 Y210.753 E75.39211
G1 X181.871 Y210.467 E75.44467
G1 X182.902 Y210.263 E75.49711
G1 X183.948 Y210.138 E75.54966
G1 X184.935 Y210.100 E75.59894
G1 X315.065 Y210.100 E82.09115
G1 X316.051 Y210.138 E82.14038
G1 X317.097 Y210.263 E82.19294
G1 X318.128 Y210.467 E82.24537
G1 X319.142 Y210.753 E82.29793
G1 X320.128 Y211.117 E82.35037
G1 X321.083 Y211.557 E82.40283
G1 X322.002 Y212.072 E82.45539
G1 X322.876 Y212.655 E82.50780
G1 X323.703 Y213.307 E82.56034
G1 X324.477 Y214.022 E82.61291
G1 X325.192 Y214.796 E82.66548
G1 X325.844 Y215.623 E82.71802
G1 X326.427 Y216.497 E82.77044
G1 X326.942 Y217.416 E82.82299
G1 X327.382 Y218.371 E82.87545
G1 X327.746 Y219.357 E82.92789
G1 X328.032 Y220.371 E82.98045
G1 X328.236 Y221.402 E83.03288
G1 X328.361 Y222.446 E83.08534
G1 X328.400 Y223.433 E83.13462
G1 X328.400 Y236.567 E83.78988
G1 X328.361 Y237.553 E83.83911
G1 X328.236 Y238.597 E83.89157
G1 X328.032 Y239.628 E83.94400
G1 X327.746 Y240.642 E83.99656
G1 X327.382 Y241.628 E84.04900
G1 X326.942 Y242.583 E84.10146
G1 X326.427 Y243.502 E84.15402
G1 X325.844 Y244.376 E84.20643
G1 X325.192 Y245.203 E84.25897
G1 X324.477 Y245.977 E84.31154
G1 X323.703 Y246.692 E84.36411
G1 X322.876 Y247.344 E84.41665
G1 X322.002 Y247.927 E84.46907
G1 X321.083 Y248.442 E84.52162
G1 X320.128 Y248.882 E84.57408
G1 X319.142 Y249.246 E84.62652
G1 X318.128 Y249.532 E84.67908
G1 X317.097 Y249.736 E84.73152
G1 X316.053 Y249.861 E84.78397
G1 X315.067 Y249.900 E84.83320
G1 X184.933 Y249.900 E91.32561
G1 X183.946 Y249.861 E91.37489
G1 X182.902 Y249.736 E91.42735
G1 X181.871 Y249.532 E91.47979
G1 X180.857 Y249.246 E91.53235
G1 X179.871 Y248.882 E91.58479
G1 X178.916 Y248.442 E91.63724
G1 X177.997 Y247.927 E91.68980
G1 X177.123 Y247.344 E91.74222
G1 X176.296 Y246.692 E91.79476
G1 X175.522 Y245.977 E91.84733
G1 X174.807 Y245.203 E91.89990
G1 X174.155 Y244.376 E91.95244
G1 X173.572 Y243.502 E92.00485
G1 X173.057 Y242.583 E92.05741
G1 X172.617 Y241.628 E92.10987
G1 X172.253 Y240.642 E92.16230
G1 X171.967 Y239.628 E92.21487
G1 X171.763 Y238.597 E92.26730
G1 X171.638 Y237.551 E92.31986
G1 X171.600 Y236.565 E92.36908
G1 X171.600 Y223.648 E93.01352
G1 X171.636 Y222.461 E93.07276
G1 X171.763 Y221.402 E93.12598
G1 X171.967 Y220.371 E93.17841
G1 X172.253 Y219.357 E93.23097
G1 X172.617 Y218.371 E93.28341
G1 X173.057 Y217.416 E93.33587
G1 X173.572 Y216.497 E93.38842
G1 X174.155 Y215.623 E93.44084
G1 X174.807 Y214.796 E93.49338
G1 X175.522 Y214.022 E93.54595
G1 X176.296 Y213.307 E93.59852
G0 F9000 X176.556 Y213.611
G1 F1800 X177.358 Y212.979 E93.64946
G1 X178.206 Y212.413 E93.70033
G1 X179.097 Y211.914 E93.75127
G1 X180.024 Y211.487 E93.80219
G1 X180.981 Y211.134 E93.85308
G1 X181.965 Y210.856 E93.90410
G1 X182.964 Y210.658 E93.95491
G1 X183.980 Y210.537 E94.00595
G1 X184.943 Y210.500 E94.05403
G1 X315.057 Y210.500 E100.54545
G1 X316.019 Y210.537 E100.59348
G1 X317.035 Y210.658 E100.64452
G1 X318.034 Y210.856 E100.69533
G1 X319.018 Y211.134 E100.74635
G1 X319.975 Y211.487 E100.79724
G1 X320.902 Y211.914 E100.84815
G1 X321.793 Y212.413 E100.89910
G1 X322.641 Y212.979 E100.94997
G1 X323.443 Y213.611 E101.00091
G1 X324.194 Y214.305 E101.05193
G1 X324.888 Y215.056 E101.10294
G1 X325.520 Y215.858 E101.15389
G1 X326.086 Y216.706 E101.20475
G1 X326.585 Y217.597 E101.25570
G1 X327.012 Y218.524 E101.30662
G1 X327.365 Y219.481 E101.35751
G1 X327.643 Y220.465 E101.40852
G1 X327.841 Y221.464 E101.45933
G1 X327.962 Y222.478 E101.51028
G1 X328.000 Y223.441 E101.55836
G1 X328.000 Y236.559 E102.21282
G1 X327.962 Y237.521 E102.26085
G1 X327.841 Y238.535 E102.31180
G1 X327.643 Y239.534 E102.36261
G1 X327.365 Y240.518 E102.41362
G1 X327.012 Y241.475 E102.46451
G1 X326.585 Y242.402 E102.51543
G1 X326.086 Y243.293 E102.56638
G1 X325.520 Y244.141 E102.61724
G1 X324.888 Y244.943 E102.66819
G1 X324.194 Y245.694 E102.71920
G1 X323.443 Y246.388 E102.77022
G1 X322.641 Y247.020 E102.82116
G1 X321.793 Y247.586 E102.87203
G1 X320.902 Y248.085 E102.92297
G1 X319.975 Y248.512 E102.97389
G1 X319.018 Y248.865 E103.02478
G1 X318.034 Y249.143 E103.07580
G1 X317.035 Y249.341 E103.12661
G1 X316.021 Y249.462 E103.17755
G1 X315.059 Y249.500 E103.22559
G1 X184.941 Y249.500 E109.71720
G1 X183.978 Y249.462 E109.76528
G1 X182.964 Y249.341 E109.81623
G1 X181.965 Y249.143 E109.86704
G1 X180.981 Y248.865 E109.91805
G1 X180.024 Y248.512 E109.96894
G1 X179.097 Y248.085 E110.01986
G1 X178.206 Y247.586 E110.07081
G1 X177.358 Y247.020 E110.12167
G1 X176.556 Y246.388 E110.17262
G1 X175.805 Y245.694 E110.22363
G1 X175.111 Y244.943 E110.27465
G1 X174.479 Y244.141 E110.32559
G1 X173.913 Y243.293 E110.37645
G1 X173.414 Y242.402 E110.42740
G1 X172.987 Y241.475 E110.47832
G1 X172.634 Y240.518 E110.52921
G1 X172.356 Y239.534 E110.58023
G1 X172.158 Y238.535 E110.63104
G1 X172.037 Y237.519 E110.68208
G1 X172.000 Y236.557 E110.73011
G1 X172.000 Y223.654 E111.37384
G1 X172.035 Y222.491 E111.43189
G1 X172.158 Y221.464 E111.48350
G1 X172.356 Y220.465 E111.53431
G1 X172.634 Y219.481 E111.58532
