;START_OF_HEADER
;HEADER_VERSION:0.1
;FLAVOR:Griffin
;GENERATOR.NAME:Cura_SteamEngine
;GENERATOR.VERSION:3.2.1
;GENERATOR.BUILD_DATE:2018-02-14
;TARGET_MACHINE.NAME:Ultimaker 3
;EXTRUDER_TRAIN.0.INITIAL_TEMPERATURE:205
;EXTRUDER_TRAIN.0.MATERIAL.VOLUME_USED:846
;EXTRUDER_TRAIN.0.MATERIAL.GUID:506c9f0d-e3aa-4bd4-b2d2-23e2425b1aa9
;EXTRUDER_TRAIN.0.NOZZLE.DIAMETER:0.4
;EXTRUDER_TRAIN.0.NOZZLE.NAME:AA 0.4
;BUILD_PLATE.INITIAL_TEMPERATURE:60
;PRINT.TIME:1673
;PRINT.SIZE.MIN.X:9
;PRINT.SIZE.MIN.Y:6
;PRINT.SIZE.MIN.Z:0.27
;PRINT.SIZE.MAX.X:129.131
;PRINT.SIZE.MAX.Y:113.636
;PRINT.SIZE.MAX.Z:28.27
;END_OF_HEADER
;Generated with Cura_SteamEngine 3.2.1
T0
M82 ;absolute extrusion mode

G92 E0
M109 S205
G0 F15000 X9 Y6 Z2
G280
G1 F1500 E-6.5
;LAYER_COUNT:285
;LAYER:0
M107
M204 S625
M205 X6 Y6
G0 F4285.7 X107.939 Y98.263 Z0.27
M204 S500
M205 X5 Y5
;TYPE:SKIRT
G1 F1500 E0
G1 F1200 X108.493 Y97.775 E0.01094
G1 X109.096 Y97.349 E0.02187
G1 X109.742 Y96.99 E0.03282
G1 X110.423 Y96.704 E0.04376
G1 X111.131 Y96.493 E0.05471
G1 X111.858 Y96.359 E0.06566
G1 X112.417 Y96.311 E0.07397
G1 X119.835 Y95.976 E0.18396
G1 X120.574 Y95.983 E0.19491
G1 X121.307 Y96.069 E0.20585
G1 X122.027 Y96.234 E0.21679
G1 X122.725 Y96.476 E0.22773
G1 X123.393 Y96.792 E0.23868
G1 X124.022 Y97.179 E0.24962
G1 X124.753 Y97.761 E0.26346
G1 X126.915 Y99.741 E0.30689
G1 X127.431 Y100.268 E0.31781
G1 X127.888 Y100.849 E0.32876
G1 X128.28 Y101.475 E0.3397
G1 X128.601 Y102.14 E0.35064
G1 X128.849 Y102.836 E0.36159
G1 X129.02 Y103.555 E0.37253
G1 X129.113 Y104.287 E0.38346
G1 X129.13 Y104.717 E0.38984
G1 X129.131 Y104.837 E0.39162
G1 X129.097 Y105.575 E0.40256
G1 X128.984 Y106.305 E0.4135
G1 X128.792 Y107.018 E0.42444
G1 X128.524 Y107.707 E0.43539
G1 X128.184 Y108.362 E0.44632
G1 X127.775 Y108.977 E0.45727
G1 X127.302 Y109.544 E0.4682
G1 X126.77 Y110.057 E0.47915
G1 X126.186 Y110.509 E0.49009
G1 X125.556 Y110.895 E0.50104
G1 X124.888 Y111.212 E0.51199
G1 X124.191 Y111.454 E0.52292
G1 X123.471 Y111.619 E0.53386
G1 X122.737 Y111.705 E0.54481
G1 X121.999 Y111.712 E0.55574
G1 X121.264 Y111.639 E0.56668
G1 X120.843 Y111.55 E0.57306
G1 X120.136 Y111.512 E0.58354
G1 X119.734 Y111.525 E0.5895
G1 X118.997 Y111.469 E0.60045
G1 X118.271 Y111.333 E0.61139
G1 X118.138 Y111.295 E0.61344
G1 X117.487 Y111.193 E0.6232
G1 X117.468 Y111.188 E0.62349
G1 X117.232 Y111.168 E0.627
G1 X116.931 Y111.116 E0.63153
G1 X116.356 Y111.061 E0.64008
G1 X116.045 Y110.997 E0.64479
G1 X115.869 Y110.979 E0.64741
G1 X115.147 Y110.822 E0.65835
G1 X114.904 Y110.742 E0.66214
G1 X114.692 Y110.707 E0.66533
G1 X114.594 Y110.702 E0.66678
G1 X114.205 Y110.65 E0.67259
G1 X113.845 Y110.591 E0.678
G1 X113.124 Y110.432 E0.68893
G1 X113.091 Y110.421 E0.68945
G1 X112.148 Y110.229 E0.7037
G1 X110.814 Y109.857 E0.72422
G1 X110.114 Y109.621 E0.73516
G1 X109.444 Y109.31 E0.7461
G1 X108.811 Y108.928 E0.75706
G1 X108.224 Y108.481 E0.76799
G1 X107.688 Y107.972 E0.77894
G1 X107.21 Y107.409 E0.78988
G1 X106.796 Y106.797 E0.80082
G1 X106.451 Y106.144 E0.81176
G1 X106.178 Y105.458 E0.8227
G1 X105.981 Y104.746 E0.83364
G1 X105.862 Y104.017 E0.84458
G1 X105.822 Y103.28 E0.85552
G1 X105.862 Y102.542 E0.86647
G1 X105.982 Y101.813 E0.87741
G1 X106.18 Y101.101 E0.88836
G1 X106.558 Y100.199 E0.90284
G1 X106.636 Y100.045 E0.9054
G1 X107.005 Y99.405 E0.91634
G1 X107.441 Y98.809 E0.92728
G1 X107.939 Y98.263 E0.93823
M204 S625
M205 X6 Y6
G0 F4285.7 X108.225 Y98.474
M204 S500
M205 X5 Y5
G1 F1200 X108.769 Y98.003 E0.94889
G1 X109.362 Y97.596 E0.95954
G1 X109.997 Y97.257 E0.97021
G1 X110.665 Y96.99 E0.98086
G1 X111.359 Y96.8 E0.99152
G1 X112.069 Y96.687 E1.00217
G1 X112.433 Y96.661 E1.00758
G1 X119.851 Y96.326 E1.11758
G1 X120.57 Y96.333 E1.12823
G1 X121.284 Y96.42 E1.13888
G1 X121.984 Y96.586 E1.14954
G1 X122.662 Y96.829 E1.16021
G1 X123.308 Y97.145 E1.17086
G1 X123.915 Y97.531 E1.18152
G1 X124.516 Y98.019 E1.19298
G1 X126.678 Y99.999 E1.23641
G1 X127.181 Y100.514 E1.24708
G1 X127.623 Y101.081 E1.25773
G1 X128 Y101.694 E1.26839
G1 X128.307 Y102.344 E1.27903
G1 X128.539 Y103.025 E1.28969
G1 X128.695 Y103.728 E1.30036
G1 X128.78 Y104.72 E1.31511
G1 X128.781 Y104.84 E1.31688
G1 X128.747 Y105.559 E1.32755
G1 X128.633 Y106.269 E1.3382
G1 X128.442 Y106.963 E1.34886
G1 X128.174 Y107.63 E1.35951
G1 X127.835 Y108.265 E1.37017
G1 X127.426 Y108.857 E1.38083
G1 X126.955 Y109.401 E1.39149
G1 X126.426 Y109.889 E1.40215
G1 X125.847 Y110.315 E1.4128
G1 X125.224 Y110.674 E1.42345
G1 X124.564 Y110.962 E1.43412
G1 X123.877 Y111.175 E1.44477
G1 X123.171 Y111.311 E1.45542
G1 X122.453 Y111.367 E1.46609
G1 X121.734 Y111.344 E1.47675
G1 X121.022 Y111.24 E1.48741
G1 X120.877 Y111.202 E1.48963
G1 X120.22 Y111.167 E1.49937
G1 X119.536 Y111.167 E1.50951
G1 X118.821 Y111.088 E1.52016
G1 X118.301 Y110.959 E1.5281
G1 X118.215 Y110.955 E1.52937
G1 X117.505 Y110.839 E1.54003
G1 X117.43 Y110.818 E1.54119
G1 X117.1 Y110.778 E1.54611
G1 X117.049 Y110.778 E1.54686
G1 X116.334 Y110.704 E1.55751
G1 X116.061 Y110.644 E1.56165
G1 X115.777 Y110.608 E1.56589
G1 X115.078 Y110.438 E1.57655
G1 X114.952 Y110.395 E1.57852
G1 X114.664 Y110.345 E1.58285
G1 X114.639 Y110.337 E1.58324
G1 X114.262 Y110.305 E1.58885
G1 X113.902 Y110.246 E1.59425
G1 X113.199 Y110.09 E1.60492
G1 X113.149 Y110.073 E1.6057
G1 X113.086 Y110.068 E1.60664
G1 X112.242 Y109.892 E1.61941
G1 X110.908 Y109.52 E1.63992
G1 X110.227 Y109.289 E1.65057
G1 X109.575 Y108.983 E1.66124
G1 X108.962 Y108.607 E1.6719
G1 X108.394 Y108.165 E1.68256
G1 X107.879 Y107.663 E1.69321
G1 X107.422 Y107.107 E1.70387
G1 X107.03 Y106.504 E1.71453
G1 X106.707 Y105.861 E1.72519
G1 X106.458 Y105.186 E1.73584
G1 X106.285 Y104.488 E1.7465
G1 X106.191 Y103.775 E1.75715
G1 X106.176 Y103.055 E1.76782
G1 X106.241 Y102.339 E1.77847
G1 X106.386 Y101.634 E1.78913
G1 X106.607 Y100.95 E1.79978
G1 X106.871 Y100.357 E1.80939
G1 X106.949 Y100.203 E1.81195
G1 X107.309 Y99.581 E1.8226
G1 X107.736 Y99.002 E1.83325
G1 X108.225 Y98.474 E1.84391
M204 S625
M205 X6 Y6
G0 F4285.7 X108.51 Y98.685
M204 S500
M205 X5 Y5
G1 F1200 X109.044 Y98.234 E1.85427
G1 X109.626 Y97.846 E1.86463
G1 X110.249 Y97.527 E1.875
G1 X110.904 Y97.281 E1.88536
G1 X111.583 Y97.111 E1.89573
G1 X112.449 Y97.01 E1.90865
G1 X119.867 Y96.675 E2.01864
G1 X120.566 Y96.684 E2.029
G1 X121.26 Y96.772 E2.03936
G1 X121.94 Y96.939 E2.04973
G1 X122.596 Y97.182 E2.0601
G1 X123.22 Y97.498 E2.07046
G1 X123.804 Y97.884 E2.08083
G1 X124.28 Y98.277 E2.08997
G1 X126.442 Y100.257 E2.1334
G1 X126.93 Y100.758 E2.14376
G1 X127.358 Y101.312 E2.15413
G1 X127.72 Y101.911 E2.1645
G1 X128.011 Y102.547 E2.17486
G1 X128.228 Y103.212 E2.18522
G1 X128.367 Y103.898 E2.19559
G1 X128.43 Y104.723 E2.20784
G1 X128.431 Y104.843 E2.20962
G1 X128.397 Y105.542 E2.21999
G1 X128.283 Y106.232 E2.23035
G1 X128.091 Y106.905 E2.24072
G1 X127.824 Y107.552 E2.25108
G1 X127.485 Y108.164 E2.26145
G1 X127.078 Y108.733 E2.27181
G1 X126.609 Y109.253 E2.28218
G1 X126.084 Y109.715 E2.29254
G1 X125.51 Y110.114 E2.3029
G1 X124.893 Y110.446 E2.31328
G1 X124.243 Y110.705 E2.32364
G1 X123.568 Y110.888 E2.334
G1 X122.876 Y110.992 E2.34437
G1 X122.177 Y111.018 E2.35473
G1 X121.479 Y110.963 E2.3651
G1 X120.917 Y110.853 E2.37358
G1 X120.179 Y110.814 E2.38453
G1 X120.044 Y110.825 E2.38654
G1 X119.345 Y110.803 E2.3969
G1 X118.652 Y110.701 E2.40727
G1 X118.3 Y110.607 E2.41267
G1 X118.214 Y110.602 E2.41395
G1 X117.524 Y110.484 E2.42432
G1 X117.508 Y110.479 E2.42457
G1 X117.086 Y110.426 E2.43087
G1 X117.009 Y110.426 E2.43201
G1 X116.314 Y110.345 E2.44237
G1 X116.106 Y110.297 E2.44553
G1 X115.69 Y110.234 E2.45177
G1 X115.151 Y110.074 E2.46009
G1 X114.711 Y109.995 E2.46672
G1 X114.318 Y109.959 E2.47256
G1 X113.958 Y109.9 E2.47797
G1 X113.275 Y109.748 E2.48833
G1 X113.206 Y109.725 E2.48941
G1 X113.077 Y109.713 E2.49133
G1 X112.336 Y109.555 E2.50255
G1 X111.002 Y109.183 E2.52307
G1 X110.34 Y108.957 E2.53343
G1 X109.708 Y108.657 E2.54379
G1 X109.114 Y108.286 E2.55417
G1 X108.566 Y107.851 E2.56453
G1 X108.072 Y107.355 E2.5749
G1 X107.637 Y106.807 E2.58526
G1 X107.268 Y106.213 E2.59562
G1 X106.969 Y105.58 E2.60599
G1 X106.744 Y104.918 E2.61635
G1 X106.596 Y104.234 E2.62672
G1 X106.527 Y103.537 E2.63709
G1 X106.538 Y102.838 E2.64745
G1 X106.629 Y102.144 E2.65782
G1 X106.798 Y101.465 E2.66818
G1 X107.183 Y100.515 E2.68337
G1 X107.261 Y100.361 E2.68592
G1 X107.612 Y99.756 E2.69629
G1 X108.03 Y99.195 E2.70665
G1 X108.51 Y98.685 E2.71702
M204 S625
M205 X6 Y6
G0 F4285.7 X108.794 Y98.899
M204 S500
M205 X5 Y5
G1 F1200 X109.318 Y98.466 E2.72709
G1 X109.889 Y98.098 E2.73716
G1 X110.499 Y97.8 E2.74721
G1 X111.14 Y97.576 E2.75727
G1 X111.804 Y97.428 E2.76735
G1 X112.464 Y97.36 E2.77718
G1 X119.882 Y97.025 E2.88717
G1 X120.562 Y97.034 E2.89725
G1 X121.235 Y97.123 E2.9073
G1 X121.894 Y97.291 E2.91738
G1 X122.528 Y97.534 E2.92744
G1 X123.129 Y97.851 E2.9375
G1 X123.689 Y98.236 E2.94757
G1 X124.043 Y98.535 E2.95443
G1 X126.205 Y100.515 E2.99786
G1 X126.679 Y101.003 E3.00794
G1 X127.091 Y101.542 E3.01799
G1 X127.438 Y102.127 E3.02806
G1 X127.713 Y102.748 E3.03812
G1 X127.913 Y103.397 E3.04818
G1 X128.036 Y104.065 E3.05825
G1 X128.08 Y104.726 E3.06806
G1 X128.081 Y104.846 E3.06984
G1 X128.046 Y105.524 E3.07989
G1 X127.933 Y106.194 E3.08996
G1 X127.741 Y106.846 E3.10003
G1 X127.474 Y107.471 E3.11009
G1 X127.136 Y108.06 E3.12015
G1 X126.731 Y108.605 E3.13021
G1 X126.264 Y109.099 E3.14028
G1 X125.743 Y109.535 E3.15035
G1 X125.174 Y109.907 E3.16042
G1 X124.565 Y110.209 E3.17049
G1 X123.926 Y110.437 E3.18054
G1 X123.263 Y110.589 E3.19061
G1 X122.588 Y110.662 E3.20067
G1 X121.909 Y110.655 E3.21073
G1 X121.235 Y110.569 E3.22079
G1 X120.988 Y110.507 E3.22457
G1 X120.142 Y110.462 E3.23712
G1 X119.838 Y110.477 E3.24162
G1 X119.16 Y110.431 E3.25169
G1 X118.492 Y110.306 E3.26176
G1 X118.323 Y110.257 E3.26436
G1 X118.214 Y110.25 E3.26598
G1 X117.645 Y110.148 E3.27455
G1 X117.082 Y110.074 E3.28296
G1 X116.97 Y110.073 E3.28462
G1 X116.296 Y109.986 E3.29468
G1 X116.19 Y109.96 E3.2963
G1 X115.608 Y109.857 E3.30506
G1 X115.192 Y109.727 E3.31151
G1 X114.836 Y109.66 E3.31688
G1 X114.375 Y109.614 E3.32374
G1 X114.015 Y109.555 E3.32914
G1 X113.352 Y109.406 E3.33921
G1 X113.268 Y109.378 E3.34052
G1 X113.07 Y109.358 E3.34347
G1 X112.43 Y109.218 E3.35317
G1 X111.096 Y108.846 E3.37369
G1 X110.453 Y108.625 E3.38376
G1 X109.841 Y108.33 E3.39383
G1 X109.268 Y107.966 E3.40388
G1 X108.741 Y107.537 E3.41395
G1 X108.268 Y107.049 E3.42401
G1 X107.857 Y106.508 E3.43408
G1 X107.511 Y105.923 E3.44415
G1 X107.236 Y105.302 E3.45421
G1 X107.037 Y104.652 E3.46428
G1 X106.915 Y103.984 E3.47434
G1 X106.872 Y103.306 E3.4844
G1 X106.909 Y102.628 E3.49446
G1 X107.026 Y101.958 E3.50453
G1 X107.22 Y101.307 E3.5146
G1 X107.495 Y100.674 E3.52482
G1 X107.573 Y100.52 E3.52738
G1 X107.915 Y99.933 E3.53744
G1 X108.324 Y99.39 E3.54751
G1 X108.794 Y98.899 E3.55758
M204 S625
M205 X6 Y6
G0 F4285.7 X109.077 Y99.114
M204 S500
M205 X5 Y5
G1 F1200 X109.59 Y98.702 E3.56733
G1 X110.149 Y98.354 E3.57708
G1 X110.747 Y98.078 E3.58684
G1 X111.373 Y97.875 E3.59658
G1 X112.02 Y97.75 E3.60635
G1 X112.48 Y97.71 E3.61319
G1 X119.898 Y97.375 E3.72318
G1 X120.557 Y97.385 E3.73295
G1 X121.209 Y97.475 E3.7427
G1 X121.846 Y97.643 E3.75245
G1 X122.457 Y97.887 E3.7622
G1 X123.035 Y98.204 E3.77197
G1 X123.807 Y98.793 E3.78635
G1 X125.969 Y100.773 E3.82978
G1 X126.427 Y101.247 E3.83954
G1 X126.824 Y101.772 E3.84929
G1 X127.154 Y102.342 E3.85905
G1 X127.413 Y102.947 E3.8688
G1 X127.597 Y103.579 E3.87855
G1 X127.703 Y104.229 E3.8883
G1 X127.73 Y104.729 E3.89572
G1 X127.731 Y104.849 E3.8975
G1 X127.696 Y105.506 E3.90725
G1 X127.582 Y106.155 E3.91701
G1 X127.391 Y106.785 E3.92676
G1 X127.124 Y107.387 E3.93651
G1 X126.787 Y107.952 E3.94626
G1 X126.383 Y108.473 E3.95602
G1 X125.92 Y108.94 E3.96577
G1 X125.403 Y109.348 E3.97552
G1 X124.84 Y109.691 E3.98529
G1 X124.24 Y109.962 E3.99504
G1 X123.612 Y110.159 E4.00479
G1 X122.964 Y110.279 E4.01455
G1 X122.307 Y110.319 E4.0243
G1 X121.65 Y110.279 E4.03405
G1 X121.002 Y110.16 E4.04381
G1 X120.99 Y110.156 E4.044
G1 X120.191 Y110.113 E4.05585
G1 X119.638 Y110.121 E4.06405
G1 X118.983 Y110.051 E4.0738
G1 X118.426 Y109.912 E4.08231
G1 X118.215 Y109.898 E4.08544
G1 X117.805 Y109.82 E4.09162
G1 X117.796 Y109.82 E4.09176
G1 X117.082 Y109.722 E4.10243
G1 X116.933 Y109.719 E4.10464
G1 X116.281 Y109.627 E4.11439
G1 X116.23 Y109.613 E4.11518
G1 X116.177 Y109.609 E4.11596
G1 X115.533 Y109.476 E4.12571
G1 X115.253 Y109.384 E4.13007
G1 X114.94 Y109.322 E4.1348
G1 X114.432 Y109.269 E4.14236
G1 X114.072 Y109.21 E4.14777
G1 X113.429 Y109.064 E4.15754
G1 X113.333 Y109.031 E4.15904
G1 X113.066 Y109.002 E4.16302
G1 X112.524 Y108.881 E4.17124
G1 X111.19 Y108.509 E4.19176
G1 X110.567 Y108.294 E4.20152
G1 X109.976 Y108.005 E4.21127
G1 X109.423 Y107.646 E4.22103
G1 X108.918 Y107.224 E4.23078
G1 X108.468 Y106.743 E4.24054
G1 X108.08 Y106.211 E4.25029
G1 X107.759 Y105.636 E4.26005
G1 X107.51 Y105.027 E4.26979
G1 X107.336 Y104.391 E4.27956
G1 X107.241 Y103.74 E4.28931
G1 X107.226 Y103.082 E4.29906
G1 X107.29 Y102.426 E4.30882
G1 X107.433 Y101.783 E4.31858
G1 X107.653 Y101.163 E4.32832
G1 X107.807 Y100.832 E4.33373
G1 X107.885 Y100.678 E4.33629
G1 X108.218 Y100.109 E4.34606
G1 X108.617 Y99.586 E4.3558
G1 X109.077 Y99.114 E4.36556
M204 S625
M205 X6 Y6
G0 F4285.7 X109.359 Y99.331
M204 S500
M205 X5 Y5
G1 F1200 X109.861 Y98.939 E4.375
G1 X110.408 Y98.614 E4.38442
G1 X110.992 Y98.359 E4.39386
G1 X111.603 Y98.18 E4.40329
G1 X112.496 Y98.059 E4.41664
G1 X119.914 Y97.724 E4.52664
G1 X120.551 Y97.735 E4.53608
G1 X121.181 Y97.826 E4.54551
G1 X121.795 Y97.995 E4.55494
G1 X122.383 Y98.24 E4.56438
G1 X122.936 Y98.557 E4.57382
G1 X123.571 Y99.051 E4.58574
G1 X125.733 Y101.031 E4.62916
G1 X126.174 Y101.49 E4.63859
G1 X126.555 Y102.001 E4.64804
G1 X126.869 Y102.555 E4.65747
G1 X127.111 Y103.144 E4.6669
G1 X127.277 Y103.759 E4.67634
G1 X127.365 Y104.389 E4.68576
G1 X127.38 Y104.732 E4.69085
G1 X127.381 Y104.852 E4.69262
G1 X127.346 Y105.488 E4.70206
G1 X127.232 Y106.114 E4.71149
G1 X127.041 Y106.722 E4.72093
G1 X126.774 Y107.3 E4.73036
G1 X126.438 Y107.841 E4.73979
G1 X126.036 Y108.335 E4.74923
G1 X125.576 Y108.775 E4.75866
G1 X125.064 Y109.154 E4.76809
G1 X124.509 Y109.466 E4.77752
G1 X123.919 Y109.706 E4.78696
G1 X123.303 Y109.87 E4.7964
G1 X122.672 Y109.956 E4.80583
G1 X122.035 Y109.962 E4.81527
G1 X121.403 Y109.888 E4.8247
G1 X121.093 Y109.812 E4.82943
G1 X120.182 Y109.763 E4.84294
G1 X120.082 Y109.773 E4.84443
G1 X119.446 Y109.758 E4.85385
G1 X118.816 Y109.662 E4.86329
G1 X118.449 Y109.562 E4.86893
G1 X118.218 Y109.545 E4.87236
G1 X117.831 Y109.467 E4.87821
G1 X117.757 Y109.466 E4.8793
G1 X117.148 Y109.378 E4.88842
G1 X117.115 Y109.371 E4.88892
G1 X116.899 Y109.365 E4.89212
G1 X116.269 Y109.267 E4.90156
G1 X116.233 Y109.257 E4.90212
G1 X116.083 Y109.24 E4.90435
G1 X115.463 Y109.092 E4.91379
G1 X115.325 Y109.044 E4.91596
G1 X115.014 Y108.979 E4.92067
G1 X114.975 Y108.979 E4.92124
G1 X114.488 Y108.923 E4.9285
G1 X114.128 Y108.864 E4.93391
G1 X113.507 Y108.722 E4.94335
G1 X113.406 Y108.687 E4.94493
G1 X113.063 Y108.646 E4.95005
G1 X112.618 Y108.543 E4.95681
G1 X111.284 Y108.171 E4.97733
G1 X110.682 Y107.962 E4.98677
G1 X110.112 Y107.679 E4.99619
G1 X109.581 Y107.327 E5.00563
G1 X109.099 Y106.911 E5.01506
G1 X108.672 Y106.438 E5.0245
G1 X108.308 Y105.916 E5.03393
G1 X108.013 Y105.352 E5.04336
G1 X107.79 Y104.755 E5.0528
G1 X107.644 Y104.135 E5.06223
G1 X107.577 Y103.502 E5.07166
G1 X107.589 Y102.865 E5.0811
G1 X107.681 Y102.235 E5.09053
G1 X107.852 Y101.621 E5.09997
G1 X108.12 Y100.99 E5.11013
G1 X108.198 Y100.836 E5.11269
G1 X108.52 Y100.287 E5.12211
G1 X108.91 Y99.783 E5.13155
G1 X109.359 Y99.331 E5.14099
M204 S625
M205 X6 Y6
G0 F4285.7 X109.201 Y99.981
M204 S500
M205 X5 Y5
G1 F1200 X109.64 Y99.55 E5.1501
G1 X110.13 Y99.18 E5.1592
G1 X110.664 Y98.877 E5.1683
G1 X111.234 Y98.646 E5.17741
G1 X111.828 Y98.49 E5.1865
G1 X112.512 Y98.409 E5.19671
G1 X119.93 Y98.074 E5.3067
G1 X120.544 Y98.086 E5.3158
G1 X121.152 Y98.178 E5.32491
G1 X121.742 Y98.348 E5.33401
G1 X122.306 Y98.593 E5.34311
G1 X122.833 Y98.909 E5.35222
G1 X123.334 Y99.309 E5.36171
